src/next/cmd/sc_window3d.svg

<svg viewBox="0 0 16 16" xmlns="http://www.w3.org/2000/svg">/&amp;gt;<path d="m4 0v.02148438l-3.625 3.62500002-.35351562.3535156h-.02148438v12h12l.353516-.353516 3.646484-4.232422v-.216796-1.197266-9-.29296875-.70703125h-11-.9785156zm1 1h9.292969l-3 3h-.292969-6zm-1 .4355469v2.5644531h-.4140625-.171875-1.9785156zm11 .2714843v8.2929688h-3v-5.2929688l.353516-.3535156zm-14 3.2929688h1.4140625.59375.9921875v5 1l-3 3.601562zm4 0h6v5h-6zm0 6h6v4h-9.3730469zm7 0h3l-3 3.585938z" fill="#4c4c4c"/></svg>

<?xml version="1.0" encoding="UTF-8" standalone="no"?>
<svg
   xmlns:dc="http://purl.org/dc/elements/1.1/"
   xmlns:cc="http://creativecommons.org/ns#"
   xmlns:rdf="http://www.w3.org/1999/02/22-rdf-syntax-ns#"
   xmlns:svg="http://www.w3.org/2000/svg"
   xmlns="http://www.w3.org/2000/svg"
   xmlns:sodipodi="http://sodipodi.sourceforge.net/DTD/sodipodi-0.dtd"
   xmlns:inkscape="http://www.inkscape.org/namespaces/inkscape"
   viewBox="0 0 16 16"
   version="1.1"
   id="svg4"
   sodipodi:docname="sc_window3d.svg"
   inkscape:version="0.92.3 (2405546, 2018-03-11)"
   inkscape:export-filename="/home/rizmut/Dokumen/Rizmut/Github/libreoffice-style-karasa-jaga/build/next/cmd/sc_window3d.png"
   inkscape:export-xdpi="96"
   inkscape:export-ydpi="96"><metadata
   id="metadata10">
  <rdf:RDF>
    <cc:Work
       rdf:about="">
      <dc:format>image/svg+xml</dc:format>
      <dc:type
         rdf:resource="http://purl.org/dc/dcmitype/StillImage" />
      <dc:title></dc:title>
    </cc:Work>
  </rdf:RDF>
</metadata>
<defs
   id="defs8" />
<sodipodi:namedview
   pagecolor="#ffffff"
   bordercolor="#666666"
   borderopacity="1"
   objecttolerance="10"
   gridtolerance="10"
   guidetolerance="10"
   inkscape:pageopacity="0"
   inkscape:pageshadow="2"
   inkscape:window-width="1366"
   inkscape:window-height="714"
   id="namedview6"
   showgrid="true"
   inkscape:zoom="20.85965"
   inkscape:cx="7.8161092"
   inkscape:cy="7.277702"
   inkscape:window-x="0"
   inkscape:window-y="28"
   inkscape:window-maximized="1"
   inkscape:current-layer="svg4">
  <inkscape:grid
     type="xygrid"
     id="grid817" />
</sodipodi:namedview>


     /&gt;
 <path
   style="fill:#4c4c4c;fill-opacity:1"
   d="M 4 0 L 4 0.021484375 L 0.375 3.6464844 L 0.021484375 4 L 0 4 L 0 16 L 12 16 L 12.353516 15.646484 L 16 11.414062 L 16 11.197266 L 16 10 L 16 1 L 16 0.70703125 L 16 0 L 5 0 L 4.0214844 0 L 4 0 z M 5 1 L 14.292969 1 L 11.292969 4 L 11 4 L 5 4 L 5 1 z M 4 1.4355469 L 4 4 L 3.5859375 4 L 3.4140625 4 L 1.4355469 4 L 4 1.4355469 z M 15 1.7070312 L 15 10 L 12 10 L 12 4.7070312 L 12.353516 4.3535156 L 15 1.7070312 z M 1 5 L 2.4140625 5 L 3.0078125 5 L 4 5 L 4 10 L 4 11 L 1 14.601562 L 1 5 z M 5 5 L 11 5 L 11 10 L 5 10 L 5 5 z M 5 11 L 11 11 L 11 15 L 1.6269531 15 L 5 11 z M 12 11 L 15 11 L 12 14.585938 L 12 11 z "
   id="path2" />
</svg>
